papirus/22x22/apps/doublecmd.svg

<svg height="22" width="22" xmlns="http://www.w3.org/2000/svg"><g transform="translate(-1 -1)"><rect fill="#d95951" height="20" rx="1" transform="matrix(0 -1 -1 0 0 0)" width="20" x="-22" y="-22"/><path d="m21 5.5v3h-3.427734c-.316572 0-.572266.2556942-.572266.5722656v6.8554684c0 .316572.255694.572266.572266.572266h3.427734v3h-6c-.554 0-1-.446-1-1v-12c0-.554.446-1 1-1z" opacity=".2"/><path d="m21 5v3h-3.427734c-.316572 0-.572266.2556942-.572266.5722656v6.8554684c0 .316572.255694.572266.572266.572266h3.427734v3h-6c-.554 0-1-.446-1-1v-12c0-.554.446-1 1-1z" fill="#fff"/><path d="m3 2c-.554 0-1 .446-1 1v .5c0-.554.446-1 1-1h18c .554 0 1 .446 1 1v-.5c0-.554-.446-1-1-1z" fill="#fff" opacity=".2"/><path d="m3 22c-.554 0-1-.446-1-1v-.5c0 .554.446 1 1 1h18c .554 0 1-.446 1-1v .5c0 .554-.446 1-1 1z" opacity=".3"/><path d="m3 5.5v3h3.4277344c.316572 0 .5722656.2556942.5722656.5722656v6.8554684c0 .316572-.2556936.572266-.5722656.572266h-3.4277344v3h6c .554 0 1-.446 1-1v-12c0-.554-.446-1-1-1z" opacity=".2"/><path d="m3 5v3h3.4277344c.316572 0 .5722656.2556942.5722656.5722656v6.8554684c0 .316572-.2556936.572266-.5722656.572266h-3.4277344v3h6c .554 0 1-.446 1-1v-12c0-.554-.446-1-1-1z" fill="#fff"/></g></svg>

<?xml version="1.0" encoding="UTF-8" standalone="no"?>
<!-- Created with Inkscape (http://www.inkscape.org/) -->

<svg
   xmlns:dc="http://purl.org/dc/elements/1.1/"
   xmlns:cc="http://creativecommons.org/ns#"
   xmlns:rdf="http://www.w3.org/1999/02/22-rdf-syntax-ns#"
   xmlns:svg="http://www.w3.org/2000/svg"
   xmlns="http://www.w3.org/2000/svg"
   xmlns:sodipodi="http://sodipodi.sourceforge.net/DTD/sodipodi-0.dtd"
   xmlns:inkscape="http://www.inkscape.org/namespaces/inkscape"
   id="svg2817"
   height="22"
   width="22"
   version="1.0"
   inkscape:version="0.91 r13725"
   sodipodi:docname="doublecmd.svg">
  <sodipodi:namedview
     pagecolor="#ffffff"
     bordercolor="#666666"
     borderopacity="1"
     objecttolerance="10"
     gridtolerance="10"
     guidetolerance="10"
     inkscape:pageopacity="0"
     inkscape:pageshadow="2"
     inkscape:window-width="1600"
     inkscape:window-height="849"
     id="namedview14"
     showgrid="false"
     inkscape:zoom="11.42"
     inkscape:cx="1.8190955"
     inkscape:cy="12"
     inkscape:window-x="0"
     inkscape:window-y="0"
     inkscape:window-maximized="1"
     inkscape:current-layer="svg2817" />
  <metadata
     id="metadata57">
    <rdf:RDF>
      <cc:Work
         rdf:about="">
        <dc:format>image/svg+xml</dc:format>
        <dc:type
           rdf:resource="http://purl.org/dc/dcmitype/StillImage" />
        <dc:title></dc:title>
      </cc:Work>
    </rdf:RDF>
  </metadata>
  <defs
     id="defs2819" />
  <g
     id="g4188"
     transform="translate(-1,-1)">
    <rect
       x="-22"
       y="-22"
       width="20"
       height="20"
       transform="matrix(0,-1,-1,0,0,0)"
       rx="1"
       ry="1"
       id="rect4203-6"
       style="fill:#d95951" />
    <path
       id="path4184"
       d="m 21,5.5 0,3 -3.427734,0 C 17.255694,8.5 17,8.7556942 17,9.0722656 l 0,6.8554684 C 17,16.244306 17.255694,16.5 17.572266,16.5 L 21,16.5 l 0,3 -6,0 c -0.554,0 -1,-0.446 -1,-1 l 0,-12 c 0,-0.554 0.446,-1 1,-1 l 6,0 z"
       style="opacity:0.2;fill:#000000;fill-opacity:1;stroke:none;stroke-width:4;stroke-linecap:round;stroke-linejoin:round;stroke-miterlimit:4;stroke-dasharray:none;stroke-opacity:1"
       inkscape:connector-curvature="0" />
    <path
       inkscape:connector-curvature="0"
       style="opacity:1;fill:#ffffff;fill-opacity:1;stroke:none;stroke-width:4;stroke-linecap:round;stroke-linejoin:round;stroke-miterlimit:4;stroke-dasharray:none;stroke-opacity:1"
       d="m 21,5 0,3 -3.427734,0 C 17.255694,8 17,8.2556942 17,8.5722656 l 0,6.8554684 C 17,15.744306 17.255694,16 17.572266,16 L 21,16 l 0,3 -6,0 c -0.554,0 -1,-0.446 -1,-1 L 14,6 c 0,-0.554 0.446,-1 1,-1 l 6,0 z"
       id="path4182" />
    <path
       d="M 3,2 C 2.446,2 2,2.446 2,3 l 0,0.5 c 0,-0.554 0.446,-1 1,-1 l 18,0 c 0.554,0 1,0.446 1,1 L 22,3 C 22,2.446 21.554,2 21,2 L 3,2 Z"
       id="rect4592"
       inkscape:connector-curvature="0"
       style="opacity:0.2;fill:#ffffff" />
    <path
       d="M 3,22 C 2.446,22 2,21.554 2,21 l 0,-0.5 c 0,0.554 0.446,1 1,1 l 18,0 c 0.554,0 1,-0.446 1,-1 l 0,0.5 c 0,0.554 -0.446,1 -1,1 L 3,22 Z"
       id="path4597"
       inkscape:connector-curvature="0"
       style="opacity:0.3" />
    <path
       style="opacity:0.2;fill:#000000;fill-opacity:1;stroke:none;stroke-width:4;stroke-linecap:round;stroke-linejoin:round;stroke-miterlimit:4;stroke-dasharray:none;stroke-opacity:1"
       d="m 3,5.5 0,3 3.4277344,0 C 6.7443064,8.5 7,8.7556942 7,9.0722656 L 7,15.927734 C 7,16.244306 6.7443064,16.5 6.4277344,16.5 L 3,16.5 l 0,3 6,0 c 0.554,0 1,-0.446 1,-1 l 0,-12 c 0,-0.554 -0.446,-1 -1,-1 l -6,0 z"
       id="path4186"
       inkscape:connector-curvature="0" />
    <path
       inkscape:connector-curvature="0"
       id="rect4174"
       d="M 3,5 3,8 6.4277344,8 C 6.7443064,8 7,8.2556942 7,8.5722656 L 7,15.427734 C 7,15.744306 6.7443064,16 6.4277344,16 L 3,16 l 0,3 6,0 c 0.554,0 1,-0.446 1,-1 L 10,6 C 10,5.446 9.554,5 9,5 L 3,5 Z"
       style="opacity:1;fill:#ffffff;fill-opacity:1;stroke:none;stroke-width:4;stroke-linecap:round;stroke-linejoin:round;stroke-miterlimit:4;stroke-dasharray:none;stroke-opacity:1" />
  </g>
</svg>
